X: 16670
T: Hanter Dro
R: slide
M: 12/8
K: Bminor
|:B,2 FD E2 ED CD EF|B,2 DC B,2 CD B,2 A,2|
B,2 FD E2 ED CD EF|B,2 DC B,2 A,2 B,2 B,2:|
C2 DE D2 EF EF GA|G2 FE D2 B,2 CD C2|
B,2 CD C2 E2 D2 D2|C2 FE D2 C2 B,2 B,2|
C2 DE D2 EF EF GA|G2 FE D2 B,2 CD C2|
E2 E2 F2 G2 E4|DF ED C2 B,A, B,2 B,2||

